X: 29590
T: Nóra Críona
R: jig
M: 6/8
K: Amixolydian
|:A2B cBA|B2c dcB|ece aec|B2c dcB|
A2B cBA|edc Bce|~a3 aec|B2c dcB:|
|:ece aec|efe ecd|ece aec|B2c dcB|
[1 ece aec|efe ece|~a3 aec|B2c dcB:|
[2 ece fce|ece a2f|ece aec|B2c dcB||

